svgs/regular/drone-front.svg

<svg xmlns="http://www.w3.org/2000/svg" viewBox="0 0 640 512"><!--! Font Awesome Pro 6.4.2 by @fontawesome - https://fontawesome.com License - https://fontawesome.com/license (Commercial License) Copyright 2023 Fonticons, Inc. --><path d="M136 96c10.4 0 19.3 6.7 22.6 16H264c13.3 0 24 10.7 24 24s-10.7 24-24 24H24c-13.3 0-24-10.7-24-24s10.7-24 24-24h89.4c3.3-9.3 12.2-16 22.6-16zm345.4 16c3.3-9.3 12.2-16 22.6-16s19.3 6.7 22.6 16H616c13.3 0 24 10.7 24 24s-10.7 24-24 24H376c-13.3 0-24-10.7-24-24s10.7-24 24-24H481.4zM112 256V192h48v49.6l10.8 5.7 47.7-27.8c30.8-18 65.9-27.5 101.6-27.5s70.7 9.5 101.6 27.5l47.7 27.8 10.8-5.7V192h48v64c0 8.9-4.9 17.1-12.8 21.2l-51.6 27.3 4.5 5.4c18 21.6 27.8 48.8 27.8 76.8V392c0 13.3-10.7 24-24 24s-24-10.7-24-24v-5.2c0-16.8-5.9-33.2-16.7-46.1l-11-13.2-41.1 21.7c-3.5 1.8-7.3 2.8-11.2 2.8H272c-3.9 0-7.8-1-11.2-2.8l-41.1-21.7-11 13.2c-10.8 12.9-16.7 29.3-16.7 46.1V392c0 13.3-10.7 24-24 24s-24-10.7-24-24v-5.2c0-28.1 9.8-55.3 27.8-76.8l4.5-5.4-51.6-27.3c-7.9-4.2-12.8-12.3-12.8-21.2zm307.3 17.7l-21.9-12.8C373.9 247.2 347.2 240 320 240s-53.9 7.2-77.4 20.9l-21.9 12.8L278 304H362l57.2-30.3z"/></svg>

<svg xmlns="http://www.w3.org/2000/svg" viewBox="0 0 640 512"><!--! Font Awesome Pro 6.1.1 by @fontawesome - https://fontawesome.com License - https://fontawesome.com/license (Commercial License) Copyright 2022 Fonticons, Inc. --><path d="M136 96C146.4 96 155.3 102.7 158.6 112H264C277.3 112 288 122.7 288 136C288 149.3 277.3 160 264 160H24C10.75 160 0 149.3 0 136C0 122.7 10.75 112 24 112H113.4C116.7 102.7 125.6 96 136 96zM504 96C514.5 96 523.3 102.7 526.6 112H616C629.3 112 640 122.7 640 136C640 149.3 629.3 160 616 160H376C362.7 160 352 149.3 352 136C352 122.7 362.7 112 376 112H481.4C484.7 102.7 493.5 96 504 96zM112 256V192H160V241.6L170.8 247.3L218.4 219.5C249.3 201.5 284.3 192 320 192C355.7 192 390.7 201.5 421.6 219.5L469.2 247.3L480 241.6V192H528V256C528 264.9 523.1 273.1 515.2 277.2L463.7 304.5L468.2 309.9C486.2 331.5 496 358.7 496 386.8V392C496 405.3 485.3 416 472 416C458.7 416 448 405.3 448 392V386.8C448 369.9 442.1 353.6 431.3 340.7L420.3 327.5L379.2 349.2C375.8 351 371.9 352 368 352H272C268.1 352 264.2 351 260.8 349.2L219.7 327.5L208.7 340.7C197.9 353.6 192 369.9 192 386.8V392C192 405.3 181.3 416 168 416C154.7 416 144 405.3 144 392V386.8C144 358.7 153.8 331.5 171.8 309.9L176.3 304.5L124.8 277.2C116.9 273.1 112 264.9 112 256V256zM419.3 273.7L397.4 260.9C373.9 247.2 347.2 240 320 240C292.8 240 266.1 247.2 242.6 260.9L220.7 273.7L277.1 304H362L419.3 273.7z"/></svg>
